X: 14386
T: Galway Bay
R: hornpipe
M: 4/4
K: Eminor
EF|GFGA ~B3d|edef dfge|dBge dBAB|GFED EDB,D|
~E3F GFGE|D2DE FEDB,|EFGA BAGF|G2E2 E2:|
~e2-|edBd efg~e-|edBd EDB,D|~G3A BABc|dABG FEDB,|
GDBG FDcA|GDBG FDcA|Bdef gfed|B2e2 e2:|

